X:6605
T:Gruss von Schloss Weissenstein - Walzer/Waltz/Valse
C:?
N:abc von Simon Wascher
Z:abc transcription Simon Wascher
N:please mail errors to simon.wascher@chello.at
M:3/4
L:1/4
K:C
A3|(E2c)|A3-|A2z|
c3|(G2e)|c3-|c2z|
g3-|g(fd)|e3|c3|
g3-|g(FD)|C3-|1Czz:|2Cz(G||
|:e)ze-|ed>c|eze-|ed>c|
eze-|ed>c|a3|g3|
fzf-|fe>d|fzf-|fe>d|
fzf-|fe>d|b3|a3||
eze-|ed>c|eze-|ed>c|
eze-|c'3|b3-|bzb-|
ba>g|bzb-|ba>g|ed>c|
d'3|^f3|1g3|(g^f=f):|2g3-|gzG||
|:GB/d/f-|fed|({d}^c)z/e/d-|d2G|
GB/c/e-|e(dc)|({c}B)z/d/c-|c3|
a3|g3|f3|g3|
f3|e2^d|e3-|ezG||
GB/d/f-|fed|({d}^c)z/e/d-|d2G|
GB/c/e-|e(dc)|({c}B)z/d/c-|c3|
a3|g3|f3|e3|
f3|g2b|1c3-|czG:|2c'e'/c'/g/e/|czz|]


